packages/kaspersky-hexa-ui-icons/src/iconsSVGs/40/Ok.svg

<svg xmlns="http://www.w3.org/2000/svg" width="40" height="40" fill="none" viewBox="0 0 40 40"><path fill="#000" fill-rule="evenodd" d="M20 38c9.9411 0 18-8.0589 18-18S29.9411 2 20 2 2 10.0589 2 20s8.0589 18 18 18m7.2929-22.7071c.3905.3905.3905 1.0237 0 1.4142l-7.4393 7.4394c-.5858.5857-1.5356.5858-2.1214 0l-3.4393-3.4393c-.3905-.3905-.3905-1.0237 0-1.4142s1.0237-.3905 1.4142 0l3.0858 3.0857 7.0858-7.0858c.3905-.3905 1.0237-.3905 1.4142 0"/></svg>

<svg width="40" height="40" viewBox="0 0 40 40" fill="none" xmlns="http://www.w3.org/2000/svg">
<path fill-rule="evenodd" clip-rule="evenodd" d="M20 38C29.9411 38 38 29.9411 38 20C38 10.0589 29.9411 2 20 2C10.0589 2 2 10.0589 2 20C2 29.9411 10.0589 38 20 38ZM27.2929 15.2929C27.6834 15.6834 27.6834 16.3166 27.2929 16.7071L19.8536 24.1465C19.2678 24.7322 18.318 24.7323 17.7322 24.1465L14.2929 20.7072C13.9024 20.3167 13.9024 19.6835 14.2929 19.293C14.6834 18.9025 15.3166 18.9025 15.7071 19.293L18.7929 22.3787L25.8787 15.2929C26.2692 14.9024 26.9024 14.9024 27.2929 15.2929Z" fill="black"/>
</svg>
